X: 36077
T: Scatter The Mud
R: jig
M: 6/8
K: Adorian
Bd|eAA BAG|EAA ABd|eAA BAB|dBG GB/c/d|
eAA BAG|EAA AGE|GAB d2e|dBG A:|
ce|~a3 g2e|dBG AGE|~a3 g2e|dBd ~g3|
~a3 g2e|dBG AGE|GAB d2e|dBG A:|

